rospo-newyear-dark/symbolic/apps/rhythmbox-symbolic.svg

<svg height="16" width="16" xmlns="http://www.w3.org/2000/svg"><path d="m3.5 15c-.831 0-1.5-.669-1.5-1.5v-11c0-.831.669-1.5 1.5-1.5h8c .831 0 1.5.669 1.5 1.5v11c0 .831-.669 1.5-1.5 1.5zm4-2c1.933 0 3.5-1.567 3.5-3.5s-1.567-3.5-3.5-3.5c-1.9334 0-3.5005 1.567-3.5 3.5-.0005 1.933 1.5666 3.5 3.5 3.5zm0-2c-.828 0-1.5-.672-1.5-1.5s.672-1.5 1.5-1.5 1.5.672 1.5 1.5-.672 1.5-1.5 1.5zm-2.5-6c .5524 0 1-.4478 1-1s-.4476-1-1-1-1.0002.4478-1 1c-.0002.5522.4476 1 1 1zm5 0c .552 0 1-.4478 1-1s-.448-1-1-1-1 .4478-1 1 .448 1 1 1z" fill="#d3dae3"/></svg>

<svg xmlns="http://www.w3.org/2000/svg" width="16" height="16" version="1">
 <path style="fill:#d3dae3" d="M 3.5,15 C 2.669,15 2,14.331 2,13.5 V 2.5 C 2,1.669 2.669,1 3.5,1 h 8 C 12.331,1 13,1.669 13,2.5 v 11 c 0,0.831 -0.669,1.5 -1.5,1.5 z m 4,-2 C 9.433,13 11,11.433 11,9.5 11,7.567 9.433,6 7.5,6 5.5666,6 3.9995,7.567 4,9.5 3.9995,11.433 5.5666,13 7.5,13 Z m 0,-2 C 6.672,11 6,10.328 6,9.5 6,8.672 6.672,8 7.5,8 8.328,8 9,8.672 9,9.5 9,10.328 8.328,11 7.5,11 Z M 5,5 C 5.5524,5 6,4.5522 6,4 6,3.4478 5.5524,3 5,3 4.4476,3 3.9998,3.4478 4,4 3.9998,4.5522 4.4476,5 5,5 Z m 5,0 C 10.552,5 11,4.5522 11,4 11,3.4478 10.552,3 10,3 9.448,3 9,3.4478 9,4 9,4.5522 9.448,5 10,5 Z"/>
</svg>
